extensions/content/explorer/asset/icons/menu/svg/rights.svg

<?xml version="1.0" encoding="UTF-8" standalone="no"?>
<svg
   xmlns:dc="http://purl.org/dc/elements/1.1/"
   xmlns:cc="http://creativecommons.org/ns#"
   xmlns:rdf="http://www.w3.org/1999/02/22-rdf-syntax-ns#"
   xmlns:svg="http://www.w3.org/2000/svg"
   xmlns="http://www.w3.org/2000/svg"
   xmlns:sodipodi="http://sodipodi.sourceforge.net/DTD/sodipodi-0.dtd"
   xmlns:inkscape="http://www.inkscape.org/namespaces/inkscape"
   width="100%"
   height="100%"
   id="rights"
   viewBox="0 0 16 16">
  <defs
     id="defs9" />
  <sodipodi:namedview
     pagecolor="#ffffff"
     bordercolor="#666666"
     borderopacity="1"
     objecttolerance="10"
     gridtolerance="10"
     guidetolerance="10"
     inkscape:pageopacity="0"
     inkscape:pageshadow="2"
     inkscape:window-width="1357"
     inkscape:window-height="680"
     id="namedview32"
     showgrid="false"
     inkscape:zoom="3.5883013"
     inkscape:cx="-78.182942"
     inkscape:cy="-29.160745"
     inkscape:window-x="36"
     inkscape:window-y="102"
     inkscape:window-maximized="0"
     inkscape:current-layer="rights" />
  <g
     id="g19"
     transform="matrix(0,0.01712188,-0.01712188,0,14.370145,-1.0092093)">
    <title
       id="title21">Layer 1</title>
    <g
       id="layer1">
      <g
         transform="matrix(2.116591,0,0,2.116591,-102.64501,-421.37692)"
         id="g2346">
        <path
           d="M 350.02344,12.544922 C 272.74518,12.544922 210,79.314974 210,161.57812 c 0,61.77699 35.378,114.80282 85.73047,137.38868 l 0,38.7207 c 17.64627,0.33218 22.36428,-0.20043 23.5,-0.62305 l -12.47266,31.57813 0,3.25976 23.66602,15.91016 -21.9043,14.52148 -0.16601,4.69532 21.25586,19.40625 -26.14454,29.63476 -0.0137,12.88477 26.97266,33.86523 -24.69727,22.71094 0.20117,5.2168 10.3125,14.62695 -7.69531,20.13281 0.82422,17.73828 24.16992,22.74805 -22.05468,17.1875 0,10.63867 72.27539,55.74805 20.55859,0 0,-390.60156 C 454.6574,276.38094 490,223.35511 490,161.57812 490,79.31499 427.30171,12.544922 350.02344,12.544922 Z m 0,38.912109 c 21.52421,0 38.96094,17.483617 38.96094,39.007813 0,21.524206 -17.48361,38.958986 -39.00782,38.958986 -21.52421,0 -38.96093,-17.43478 -38.96094,-38.958986 0,-21.524196 17.48361,-39.007813 39.00782,-39.007813 z"
           transform="matrix(0,-0.65212054,0.65212054,0,68.162566,603.10156)"
           id="path2907"
           inkscape:connector-curvature="0"
           fill="currentColor" />
      </g>
    </g>
  </g>
</svg>

<?xml version="1.0" encoding="UTF-8" standalone="no"?>
<svg
   xmlns:dc="http://purl.org/dc/elements/1.1/"
   xmlns:cc="http://creativecommons.org/ns#"
   xmlns:rdf="http://www.w3.org/1999/02/22-rdf-syntax-ns#"
   xmlns:svg="http://www.w3.org/2000/svg"
   xmlns="http://www.w3.org/2000/svg"
   xmlns:xlink="http://www.w3.org/1999/xlink"
   xmlns:sodipodi="http://sodipodi.sourceforge.net/DTD/sodipodi-0.dtd"
   xmlns:inkscape="http://www.inkscape.org/namespaces/inkscape"
   width="100%"
   height="100%"
   id="rights"
   viewBox="0 0 700 700">
  <sodipodi:namedview
     pagecolor="#ffffff"
     bordercolor="#666666"
     borderopacity="1"
     objecttolerance="10"
     gridtolerance="10"
     guidetolerance="10"
     inkscape:pageopacity="0"
     inkscape:pageshadow="2"
     inkscape:window-width="1357"
     inkscape:window-height="680"
     id="namedview32"
     showgrid="false"
     inkscape:zoom="0.44853766"
     inkscape:cx="-234.34847"
     inkscape:cy="327.22586"
     inkscape:window-x="36"
     inkscape:window-y="102"
     inkscape:window-maximized="0"
     inkscape:current-layer="key" />
  <g
     id="g19"
     transform="matrix(0,0.72449464,-0.72449464,0,619.5461,-30.15873)">
    <title
       id="title21">Layer 1</title>
    <g
       id="layer1">
      <g
         transform="matrix(2.116591,0,0,2.116591,-102.64501,-421.37692)"
         id="g2346">
        <path
          fill="currentColor"
           d="M 350.02344 12.544922 C 272.74518 12.544922 210 79.314974 210 161.57812 C 210 223.35511 245.378 276.38094 295.73047 298.9668 L 295.73047 337.6875 C 313.37674 338.01968 318.09475 337.48707 319.23047 337.06445 L 306.75781 368.64258 L 306.75781 371.90234 L 330.42383 387.8125 L 308.51953 402.33398 L 308.35352 407.0293 L 329.60938 426.43555 L 303.46484 456.07031 L 303.45117 468.95508 L 330.42383 502.82031 L 305.72656 525.53125 L 305.92773 530.74805 L 316.24023 545.375 L 308.54492 565.50781 L 309.36914 583.24609 L 333.53906 605.99414 L 311.48438 623.18164 L 311.48438 633.82031 L 383.75977 689.56836 L 404.31836 689.56836 L 404.31836 298.9668 C 454.6574 276.38094 490 223.35511 490 161.57812 C 490 79.31499 427.30171 12.544922 350.02344 12.544922 z M 350.02344 51.457031 C 371.54765 51.457031 388.98438 68.940648 388.98438 90.464844 C 388.98438 111.98905 371.50077 129.42383 349.97656 129.42383 C 328.45235 129.42383 311.01563 111.98905 311.01562 90.464844 C 311.01562 68.940648 328.49923 51.457031 350.02344 51.457031 z "
           transform="matrix(0,-0.65212054,0.65212054,0,68.162566,603.10156)"
           id="path2907" />
      </g>
    </g>
  </g>
</svg>
